X: 232
M: 6/8
L: 1/8
K: G
|:\
geg fdf | ece dBd | cBc ABc | BGG G3 :|
|:\
geg fdf | ece dcB | cBc ABc | BGG G3 :|

